dist/intermediate-svg/glyphicons-clipboard.svg

<?xml version="1.0" encoding="utf-8"?><svg xmlns="http://www.w3.org/2000/svg" viewBox="0 0 20 24" width="20" height="24"><path d="M16 14.5v1a.5.5 0 01-.5.5h-11a.5.5 0 01-.5-.5v-1a.5.5 0 01.5-.5h11a.5.5 0 01.5.5zm-.5 3.5h-11a.5.5 0 00-.5.5v1a.5.5 0 00.5.5h11a.5.5 0 00.5-.5v-1a.5.5 0 00-.5-.5zm0-8h-11a.5.5 0 00-.5.5v1a.5.5 0 00.5.5h11a.5.5 0 00.5-.5v-1a.5.5 0 00-.5-.5zM20 6v16a2 2 0 01-2 2H2a2 2 0 01-2-2V6a2 2 0 012-2h2V3a1 1 0 011-1h2a2 2 0 012-2h2a2 2 0 012 2h2a1 1 0 011 1v1h2a2 2 0 012 2zm-2 16V6h-2v1a1 1 0 01-1 1H5a1 1 0 01-1-1V6H2v16z"/></svg>

<?xml version="1.0" encoding="utf-8"?><svg xmlns="http://www.w3.org/2000/svg" viewBox="0 0 20 24" width="20" height="24"><path d="M16,14.5v1a.5.5,0,0,1-.5.5H4.5a.5.5,0,0,1-.5-.5v-1a.5.5,0,0,1,.5-.5h11A.5.5,0,0,1,16,14.5ZM15.5,18H4.5a.5.5,0,0,0-.5.5v1a.5.5,0,0,0,.5.5h11a.5.5,0,0,0,.5-.5v-1A.5.5,0,0,0,15.5,18Zm0-8H4.5a.5.5,0,0,0-.5.5v1a.5.5,0,0,0,.5.5h11a.5.5,0,0,0,.5-.5v-1A.5.5,0,0,0,15.5,10ZM20,6V22a2,2,0,0,1-2,2H2a2,2,0,0,1-2-2V6A2,2,0,0,1,2,4H4V3A1,1,0,0,1,5,2H7A2,2,0,0,1,9,0h2a2,2,0,0,1,2,2h2a1,1,0,0,1,1,1V4h2A2,2,0,0,1,20,6ZM18,22V6H16V7a1,1,0,0,1-1,1H5A1,1,0,0,1,4,7V6H2V22Z" fill="var(--svg-icon-fill, #000)"/></svg>
